32x32/apps/Pithos.svg

<svg height="32" width="32" xmlns="http://www.w3.org/2000/svg"><path d="m30 17.078a14 14 0 1 0 -28 0 14 14 0 0 0 28 0" opacity=".2"/><path d="m30 16.078a14 14 0 1 0 -28 0 14 14 0 0 0 28 0" fill="#4f4f4f"/><path d="m6 17c0 5.514 4.486 10 10 10s10-4.486 10-10-4.486-10-10-10-10 4.486-10 10z" opacity=".2"/><path d="m6 16c0 5.514 4.486 10 10 10s10-4.486 10-10-4.486-10-10-10-10 4.486-10 10z" fill="#f4f4f7"/><path d="m16 8.733v7.631a6.182 6.182 0 0 0 -2.1-.364c-2.706 0-4.9 1.567-4.9 3.5s2.194 3.5 4.9 3.5 5.1-1.567 5.1-3.5v-8.5s1.41 1.216 1.885 2.478c.242.644.242 1.3-.317 1.813-.453.26-.601.662-.522 1.011.121.532.767.944 1.665.562 1.35-.703 1.789-1.964 1.789-3.014 0-3.15-4-5.85-6.8-5.85-.7 0-.7.733-.7.733z" fill="#366adb"/><path d="m15.67 2.004a14 14 0 0 0 -13.67 14.074 14 14 0 0 0 .016.262 14 14 0 0 1 27.964.287 14 14 0 0 0 .02-.549 14 14 0 0 0 -14.33-14.074z" fill="#f4f4f7" opacity=".1"/></svg>

<svg height="32" width="32" xmlns="http://www.w3.org/2000/svg">
    <path d="M30 17.078a14 14 0 1 0-28 0 14 14 0 0 0 28 0" opacity=".2"/>
    <path d="M30 16.078a14 14 0 1 0-28 0 14 14 0 0 0 28 0" fill="#4f4f4f"/>
    <path d="M6 17c0 5.514 4.486 10 10 10s10-4.486 10-10S21.514 7 16 7 6 11.486 6 17z" opacity=".2"/>
    <path d="M6 16c0 5.514 4.486 10 10 10s10-4.486 10-10S21.514 6 16 6 6 10.486 6 16z" fill="#f4f4f7"/>
    <path d="M16 8.733v7.631A6.182 6.182 0 0 0 13.9 16C11.194 16 9 17.567 9 19.5s2.194 3.5 4.9 3.5 5.1-1.567 5.1-3.5V11s1.41 1.216 1.885 2.478c.242.644.242 1.3-.317 1.813-.453.26-.601.662-.522 1.011.121.532.767.944 1.665.562 1.35-.703 1.789-1.964 1.789-3.014 0-3.15-4-5.85-6.8-5.85-.7 0-.7.733-.7.733z" fill="#366adb"/>
    <path d="M15.67 2.004A14 14 0 0 0 2 16.078a14 14 0 0 0 .016.262 14 14 0 0 1 27.964.287 14 14 0 0 0 .02-.549A14 14 0 0 0 15.67 2.004z" fill="#f4f4f7" opacity=".1"/>
</svg>
